X:1635
L:1/8
M:3/4
K:F
"^A""F" cc c2 A2 | d2 c2 a2 |"C7" c2 B2 g2 |"F" B2 A2 f2 | cc c2 A2 | d2 c2 af |"Bb" db ag"C7" de | 
"F" f2 f2 z2 ||[K:C]"^B""G7" g>f d^c df |"C" eg c2 ce |"G7" df B2 bd |"C" ce Gc eg | 
"A7" a>g e^d eg |"Dm" fa d2 df |"C" eg ag"G7" fd |"C" c2 c2"_> Teil A" z2 |:[K:Bb]"^C""Bb" f4 de | 
 f4 ga |"Eb" b2 a2 g2 |"Bb" f4 df |"F7" eg gf ed |"Bb" df fe dB |"F7" ce Ac EA |1"Bb" GF DF Bd :|2 
"Bb" B2 B2 z2 |:"^D""Bb" f2 b3 a |"Cm/Eb" g2 c2 (3(c=Bc) |"F7" e2 a3 g |"Bb" f2 B2 (3(BAB) | 
 d2 g3 f |"Cm" e2 a3 g |"F7" f=e fA Bc |"Bb" B2 B2 z2 :|

